X: 20872
T: Ye'll ay be Welcome back again
%R: air, waltz; reel
B: James Oswald "The Caledonian Pocket Companion" v.2 p.87 #2
Z: 2019 John Chambers <jc:trillian.mit.edu>
M: 3/4
L: 1/8
K: D
|: "_Slow"\
D4 FG | AF A2 B2 | AF A2 B2 | AF E2 F2 |\
D3 EFG | AFAB de | f3a eg | f2 d2 d2 :|
|:\
f3 e (d/e/f) | (g2 f2) e2 | A3 B (cd) | {f}e2 dcBA |\
f3 e (d/e/f) | g3 f (e/f/g) | f3a (e/f/g) | f2 d2 d2 :|
M: C|
|: "_Brisk"D2AB AFAB | D2dB AFTE2 | D2AB ABde | fdef d<dd2 :|
|: Tf>edf gfef | cAeA fAeA | Tf>edf g>fe>f | A<A Tf>e d<d d2 :|
